web/public/video.svg

<svg t="1680064882350" class="icon" viewBox="0 0 1024 1024" version="1.1" xmlns="http://www.w3.org/2000/svg" p-id="5287" width="200" height="200"><path d="M512 653.784194c-52.199845 0-94.525873 42.319874-94.525873 94.51818 0 52.212152 42.326028 94.525873 94.525873 94.525873 52.198306 0 94.51818-42.31372 94.51818-94.525873C606.51818 696.104068 564.198306 653.784194 512 653.784194L512 653.784194zM976.734002 929.474143 808.219119 929.474143c130.533458-92.787416 215.780897-245.131578 215.780897-417.474143 0-282.763774-229.236241-512.000015-512.000015-512.000015S-1.5e-05 229.236226-1.5e-05 512 229.236226 1024.000015 512 1024.000015l0.035385 0 464.698618 0c26.106076 0 47.266013-21.159937 47.266013-47.266013C1024.000015 950.63408 1002.840078 929.474143 976.734002 929.474143L976.734002 929.474143zM512.035385 929.474143l-0.035385 0-0.018461 0C281.423763 929.467989 94.524319 742.56393 94.524319 512s186.911752-417.475681 417.475681-417.475681S929.474143 281.43607 929.474143 512C929.474143 742.545468 742.588545 929.451066 512.035385 929.474143L512.035385 929.474143zM275.689934 417.474127c-52.198306 0-94.51818 42.326028-94.51818 94.525873 0 52.198306 42.31372 94.51818 94.51818 94.51818 52.212152 0 94.525873-42.319874 94.525873-94.51818C370.215806 459.800155 327.889778 417.474127 275.689934 417.474127L275.689934 417.474127zM551.379883 519.878438c0-21.749166-17.626101-39.387575-39.379883-39.387575-21.749166 0-39.387575 17.638409-39.387575 39.387575 0 21.743012 17.638409 39.381421 39.387575 39.381421C533.749166 559.259859 551.379883 541.62145 551.379883 519.878438L551.379883 519.878438zM740.43009 417.474127c-52.198306 0-94.524334 42.326028-94.524334 94.525873 0 52.198306 42.31372 94.51818 94.524334 94.51818 52.205999 0 94.519719-42.319874 94.519719-94.51818C834.949809 459.800155 792.629934 417.474127 740.43009 417.474127L740.43009 417.474127zM512 181.171753c-52.199845 0-94.525873 42.319874-94.525873 94.51818 0 52.212152 42.326028 94.525873 94.525873 94.525873 52.198306 0 94.51818-42.31372 94.51818-94.525873C606.51818 223.491627 564.198306 181.171753 512 181.171753L512 181.171753zM512 181.171753" fill="#d81e06" p-id="5288"></path></svg>

<svg xmlns="http://www.w3.org/2000/svg" width="200" height="200" class="icon" viewBox="0 0 1024 1024"><path fill="#d81e06" d="M512 653.784c-52.2 0-94.526 42.32-94.526 94.518 0 52.213 42.326 94.526 94.526 94.526 52.198 0 94.518-42.313 94.518-94.526 0-52.198-42.32-94.518-94.518-94.518zm464.734 275.69H808.219C938.753 836.687 1024 684.343 1024 512 1024 229.236 794.764 0 512 0S0 229.236 0 512s229.236 512 512 512h464.734c26.106 0 47.266-21.16 47.266-47.266 0-26.1-21.16-47.26-47.266-47.26zm-464.699 0h-.053C281.424 929.468 94.524 742.564 94.524 512S281.436 94.524 512 94.524 929.474 281.436 929.474 512c0 230.545-186.885 417.451-417.439 417.474zm-236.345-512c-52.198 0-94.518 42.326-94.518 94.526 0 52.198 42.313 94.518 94.518 94.518 52.212 0 94.526-42.32 94.526-94.518 0-52.2-42.326-94.526-94.526-94.526zm275.69 102.404c0-21.749-17.626-39.387-39.38-39.387-21.75 0-39.388 17.638-39.388 39.387 0 21.743 17.639 39.382 39.388 39.382 21.75 0 39.38-17.639 39.38-39.382zm189.05-102.404c-52.198 0-94.524 42.326-94.524 94.526 0 52.198 42.313 94.518 94.524 94.518 52.206 0 94.52-42.32 94.52-94.518 0-52.2-42.32-94.526-94.52-94.526zM512 181.172c-52.2 0-94.526 42.32-94.526 94.518 0 52.212 42.326 94.526 94.526 94.526 52.198 0 94.518-42.314 94.518-94.526 0-52.198-42.32-94.518-94.518-94.518zm0 0"/></svg>
